X:328
T: STEH NUR AUF DU JUNGER SCHWEIZERBUA
N: E1481
O: Europa, Mitteleuropa, Deutschland; Schweiz ?
R: Staende -, Hirten -, Alpen - Lied
M: 2/4
L: 1/16
K: C
E,F, | G,2E,F,G,F,E,F, | G,2EDC2
G,G, | G,2FED2ED | C4z2
G,2 | F,2DCB,2G,2 | G,2EDC2
G,G, | F,G,DCB,2G,G, | G,2EDC2
E,F, | G,F,E,F,G,F,E,F, | G,2EDC2
G,G, | G,2FED2ED | C4z2
G,2 | F,2DCB,2G,2 | G,2EDC2
G,G, | F,G,DCB,2G,G, | G,2EDC2
E,F, | G,F,E,F,G,F,E,F, | G,2EDC2
G,G, | G,2FED2ED | C4z2

